!!!COM: Scriabin, Alexander
!!!OTL@@FR: Prélude
!!!OTL@@EN: Prelude
!!!OPR@@FR: 5 Préludes
!!!OPR@@EN: 5 Preludes
!!!OPS: 74
!!!ONM: 2
!!!ODT: 1914
!!!AGN: Prelude
**kern	**kern	**dynam
*staff2	*staff1	*staff1/2
*Ipiano	*Ipiano	*
*clefF4	*clefG2	*
*k[]	*k[]	*
*X:	*X:	*
*M4/8	*M4/8	*
=1	=1	=1
8qFFF#X/	.	.
[2FF#X [2C#X	4a	.
.	8b#XL	.
.	8aJ	.
=2	=2	=2
2FF#] 2C#]	8gL	.
.	8f#XJ	.
.	8e#XL	.
.	[8enJ	.
=3	=3	=3
*^	*^	*
4FF#X	8C#XL	4r	8e]	.
.	8CnJ 8G	.	8raa	.
4FF#	8C#XL	16r	4raa	.
.	.	16B#XLL	.	.
.	8CnJ 8G	16Bn	.	.
.	.	[16B-XJJ	.	.
=4	=4	=4	=4	=4
*	*	*	*^	*
4FF#X	8C#XL	4B-\]	16rc	2ryy	.
.	.	.	16e#XLL	.	.
.	8CnJ 8G	.	16en	.	.
.	.	.	16e-XJJ	.	.
4FF#	8D#XL	8B#X\L	16rc	.	.
.	.	.	16gLL	.	.
.	8DnJ 8A	8A\J	16f#X	.	.
.	.	.	16e#XJJ	.	.
=5	=5	=5	=5	=5	=5
4FF#X	8C#XL	4A#X\	16rc	4an	.
.	.	.	16e#XLL	.	.
.	8CnJ 8G	.	16en	.	.
.	.	.	16e-XJJ	.	.
4FF#	8C#XL	4A#\	16f#XLL	8b#XL	.
.	.	.	16e#X	.	.
.	8CnJ 8G	.	16en	8anJ	.
.	.	.	16e-XJJ	.	.
=6	=6	=6	=6	=6	=6
4FF#X	8C#XL	4A#X\	16enKL	8gL	.
.	.	.	8e-X	.	.
.	8CnJ 8G	.	.	8f#XJ	.
.	.	.	16dJk	.	.
4FF#	8C#XL	[4A#\	16d#XKL	8e#XL	.
.	.	.	8dn	.	.
.	8CnJ 8G	.	.	[8enJ	.
.	.	.	[16d-XJk	.	.
=7	=7	=7	=7	=7	=7
4FF#X	8C#XL	8A#\]	8d-]	2e]	.
.	8CnJ 8G	8r	8rc	.	.
4FF#	8C#XL	16r	4rc	.	.
.	.	16B#X\LL	.	.	.
.	8CnJ 8G	16Bn\	.	.	.
.	.	[16B-X\JJ	.	.	.
=8	=8	=8	=8	=8	=8
4FF#X	8C#XL	4B-/]	16rc	4raa	.
.	.	.	16e#XLL	.	.
.	8CnJ 8G	.	16en	.	.
.	.	.	16e-XJJ	.	.
4FF#	8D#XL	4B#X/	16rc	8raa	.
.	.	.	16gLL	.	.
.	8DnJ 8A	.	16f#X	8bn	.
.	.	.	16e#XJJ	.	.
=9	=9	=9	=9	=9	=9
4FF#X	8C#XL	4A#X/	16f#XLL	4b#X	.
.	.	.	16e#X	.	.
.	8CnJ 8G	.	16en	.	.
.	.	.	16e-XJJ	.	.
4FF#	8C#XL	4A#/	16f#LL	8b#L 8dd#X	.
.	.	.	16e#X	.	.
.	8CnJ 8G	.	16en	8anJ 8ccn	.
.	.	.	16e-XJJ	.	.
=10	=10	=10	=10	=10	=10
4FF#X	8C#XL	4A#X/	16enKL	8gL 8a#X	.
.	.	.	8e-X	.	.
.	8CnJ 8G	.	.	8f#XJ 8an	.
.	.	.	16dJk	.	.
4FF#	8C#XL	4A#/	16d#XKL	8e#XL 8g#X	.
.	.	.	8dn	.	.
.	8CnJ 8G	.	.	8enJ 8gn	.
.	.	.	16d-XJk	.	.
=11	=11	=11	=11	=11	=11
4FF#X	8D#XL	4B#X/	16rc	8raa	.
.	.	.	16gLL	.	.
.	8DnJ 8A	.	16f#X	8bn	.
.	.	.	16e#XJJ	.	.
4FF#	8C#XL	4A#X/	16f#LL	8b#XL	.
.	.	.	16e#X	.	.
.	8CnJ 8G	.	16en	8anJ	.
.	.	.	16e-XJJ	.	.
=12	=12	=12	=12	=12	=12
4FF#X	8D#XL	4B#X/	16g#XLL	8a#XL	.
.	.	.	16gn	.	.
.	8DnJ 8An	.	16f#X	8bnJ	.
.	.	.	16fnJJ	.	.
4FF#	8C#XL	4A#X/	16f#XLL	8b#XL	.
.	.	.	16e#X	.	.
.	8CnJ 8G	.	16en	[8anJ	.
.	.	.	16e-XJJ	.	.
=13	=13	=13	=13	=13	=13
4FF#X	8C#XL	2A#X/	16f#XLL	4a]	.
.	.	.	16e#X	.	.
.	8CnJ 8G	.	16en	.	.
.	.	.	16e-XJJ	.	.
4FF#	8C#XL	.	16rc	4raa	.
.	.	.	16e#XLL	.	.
.	8CnJ 8G	.	16en	.	.
.	.	.	16e-XJJ	.	.
*	*	*	*v	*v	*
*	*	*v	*v	*
=14	=14	=14	=14
4FF#X	8C#XL	16r	.
.	.	16B#XLL	.
.	8CnJ 8G	16Bn	.
.	.	[16B-XJJ	.
4FF#	8C#XL	16B-]	.
.	.	16r	.
.	8CnJ 8G	8r	.
*v	*v	*	*
=15	=15	=15
8qFFF#X/	.	.
[2FF#X [2C#X	4a	.
.	8b#XL	.
.	8aJ	.
=16	=16	=16
2FF#_ 2C#_	8gL	.
.	8f#XJ	.
.	8e#XL	.
.	[8enJ	.
=17	=17	=17
8FF#] 8C#]	8e]	.
8r	8r	.
4r	4r	.
==	==	==
*-	*-	*-
!!!system-decoration: {(*)}
!!!ENC: Bryan Jacob Bell
!!!END: November 2021 to April 2022
!!!PED: Günter Philipp
!!!PTL: Ausgewählte Klavierwerke (Edition Peters)
